X: 2
T: Co za przyczyna tego zamieszania?
C: Mikołaj Gomółka
%%abc-version 2.0
%%abcx-abcm2ps-target-version 5.9.1 (29 Sep 2008)
%%abc-creator hum2abc beta
%%abcx-conversion-date 2021/10/04 07:59:10
%%abc-edited-by Anna Matuszewska
%%abcx-initial-encoding-date data 2020-02-04
%%humdrum-veritas 730543384
%%humdrum-veritas-data 1845570291
%%linebreak <none>
%%barnumbers 0
L: 1/4
M: C|
N: Derived from pl-wn--sd-xvi-qu-273--002_gomolka-mikolaj--co-za-przyczyna-tego-zamieszania.krn
%%staves [1 2 3 4]
V: 1
V: 2 clef=alto
V: 3 clef=alto
V: 4
K: C
[V:1] A4A3G [|] 
[V:2] E4F6 [|] 
[V:3] C4C3B, [|] 
[V:4] A,4F,6 [|] 
[V:1] ABc4B2 [|] 
[V:2] EF2<G2F [|] 
[V:3] CDE2D4 [|] 
[V:4] C,2G,4 [|] 
[V:1] c2G4cB [|] 
[V:2] ED2<C2DE2 [|] 
[V:3] C2E4C2 [|] 
[V:4] C,2C4A,2 [|] 
[V:1] AGG4F2 [|] 
[V:2] A,2D2C2A,2 [|] 
[V:3] EDCB,CD2C [|] 
[V:4] CB,A,G,A,4 [|] 
[V:1] G2B2B3c [|] 
[V:2] B,2E2^F2G2 [|] 
[V:3] D2G,2B,4 [|] 
[V:4] G,2E,2^D,2E,2 [|] 
[V:1] d2d2c2A2 [|] 
[V:2] A2GF2<E2F [|] 
[V:3] A,2B,2C2C2 [|] 
[V:4] ^F,2G,2A,2A,,2 [|] 
[V:1] B2AGA4 [|] 
[V:2] G2E4D2 [|] 
[V:3] B,2B,2A,3B, [|] 
[V:4] E,2G,2F,4 [|] 
[V:1] G2G2A2B2 [|] 
[V:2] E2E2>F2G2 [|] 
[V:3] CDE2E2D4 [|] 
[V:4] C,2C2C2B,2 [|] 
[V:1] c4B2c2 [|] 
[V:2] G2F2G2G2 [|] 
[V:3] C2D2E2 [|] 
[V:4] A,4G,2C2 [|] 
[V:1] d2c2c2B2 [|] 
[V:2] G2E2A2GF [|] 
[V:3] D2C2F2D2 [|] 
[V:4] G,2A,2F,2G,2 [|] 
[V:1] c2c2c2B2 [|] 
[V:2] E2A2G2F4 [|] 
[V:3] CDE2E2D3 [|] 
[V:4] C,2A,,2C,2D,2 [|] 
[V:1] A4G2c4 [|] 
[V:2] D2E2E4 [|] 
[V:3] CB,A,B,2A,4 [|] 
[V:4] F,4E,2A,4 [|] 
[V:1] B2A2A4 [|] 
[V:2] E2F2F2 [|] 
[V:3] B,2C2DC [|] 
[V:4] G,2F,2D,2 [|] 
[V:1] G2!fermata!A4 |]  
[V:2] E2>D2!fermata!C4 |]  
[V:3] B,A,B,2!fermata!A,4 |]  
[V:4] E,4!fermata!A,,4 |]  


